X: 38683
T: Strasby
R: barndance
M: 4/4
K: Gmajor
F|G2 G2 edBG|D2 D2 cAFD|G2 G2 edBG|FADF GedB|
G2 G2 edBG|D2 D2 cAFD|G2 G2 edBG|FADF GABc||
d2 d2 gd B2|c2 c2 ed c2|B2 B2 cABG|EGFA GABc|
d2 d2 gd B2|c2 c2 ed c2|B2 B2 cABG|EGFA GedB||

